X: 4
T: The Lisnagun
R: jig
M: 6/8
L: 1/8
K: Amaj
AFE A3 | Bce c3 | Bce cBA | BAF AFE |AFE A3 | Bce c3 | Bce cBA|1 BAF A3 :|2 BAF ABe |||: e2 c cBA | Bce c3 | Bce cBA | BAF AFE |e2 c cBA | Bce c3 | Bce cBA | BAF A3 |e2 c cBA | Bce c3 | Bce cBA | BAF AFE |AFE A3 | Bce c3 | Bce Bce | Bce Bce | A3 |


Tune 3842	Setting 16768

